X: 18860
T: In Dispraise Of Whisky
R: slip jig
M: 9/8
K: Gmixolydian
G3GDFE2D|B2c dBG A2G|G3GDFE2D|B2c A2G G3:|
d2d ed^c d2B|c3 BAB e2^c|d2d ed^c d2B|c3 BAB e3|
d3 BAG A2c|B2A GDG E2D|G2A GDF E2D|B2c A2GG3:|

